X:386
M:C|
L:1/8
K:E Minor
geeb fddf|geeb geeb|geeb fddf|geeb efec|dfec dBAF|Eeeg faef|
dfec dBFA|~E2 BG BEBe||

